X: 305780
M: 2/4
L: 1/16
K: F
c4 dcBc | A2A2A2f2 | c2f2d2f2 | f4 e2AB |\
c4 dcBc | A2A2A2f2 | d2g2f2e2 | g4 f2 H|]
d2 |\
b2g2 agfg | a2f2 gfef | d2B2b2f2 | f4 e2c2 |\
b2g2 agfg | a2f2 gfef | g2a2b2e2 | g4 "^D.C."f2 |]
c2 |\
a2 |\
c'4 a4 | f6 a2 | g2f2e2d2 | c6 c2 |\
f2fe f2c2 | dBAB cdef | .g2(gb) .e2(eg) | f6 "^D.C."y |]


